images/stash-logoconcept1.svg

<svg fill="none" height="225" viewBox="0 0 225 225" width="225" xmlns="http://www.w3.org/2000/svg"><g fill="#000"><path d="m3.32812 91v-23.6719h8.15628v5.7657c3.9062 7.0937 9.0156 10.6406 15.3281 10.6406 3.2187 0 5.9375-.9844 8.1563-2.9532 2.2187-1.9687 3.3281-4.5468 3.3281-7.7343 0-3.0938-.9063-5.3125-2.7188-6.6563-1.8125-1.375-5.2343-2.7344-10.2656-4.0781-5.8437-1.5625-10.1719-3.0313-12.9844-4.4063-2.81248-1.4062-5.06248-3.3906-6.74998-5.9531-1.65624-2.5937-2.48437-5.6562-2.48437-9.1875 0-5.4687 1.8125-9.8281 5.4375-13.0781 3.65625-3.2813 8.23435-4.9219 13.73435-4.9219 5.2188 0 10.0625 1.6875 14.5313 5.0625v-4.3593h7.9687v19.7812h-7.9687v-4.5469c-3.3438-5.0312-7.9531-7.5469-13.8281-7.5469-3.5626 0-6.2969.8282-8.2032 2.4844-1.9062 1.625-2.8594 3.5782-2.8594 5.8594 0 1.75.4844 3.2969 1.4532 4.6406.9687 1.3125 2.2031 2.2813 3.7031 2.9063s4.4531 1.5 8.8594 2.625c5.75 1.5 9.9219 2.9062 12.5156 4.2187 2.5937 1.2813 4.8281 3.4375 6.7031 6.4688 1.875 3.0312 2.8125 6.5156 2.8125 10.4531 0 5.5625-1.9687 10.1563-5.9062 13.7813-3.9063 3.625-8.75 5.4374-14.5313 5.4374-5.9375 0-11.2812-2.1406-16.0312-6.4218v5.3906zm47.69808-37.4531v-7.9219h5.9063v-6.9844l8.9062-8.1562v15.1406h8.3907v7.9219h-8.3907v22.0312c0 3.5313.1875 5.7188.5625 6.5625.4063.8125 1.3907 1.2188 2.9532 1.2188 1.6562 0 3.2812-.3125 4.875-.9375v8.1093c-2.2813.8126-4.5625 1.2188-6.8438 1.2188-2.7187 0-4.9219-.5938-6.6094-1.7812-1.6875-1.2188-2.75-2.7344-3.1875-4.5469s-.6562-4.9375-.6562-9.375v-22.5zm72.9168 29.5312v7.9219h-15.562v-5.5312c-4.313 4.1874-9.1254 6.2812-14.4379 6.2812-4.125 0-7.7187-1.3438-10.7812-4.0312-3.0313-2.6876-4.5469-6.125-4.5469-10.3126 0-4.2187 1.6094-7.7187 4.8281-10.5 3.25-2.7812 7.1563-4.1718 11.7188-4.1718 4.25 0 8.3591 1.2812 12.3281 3.8437v-4.5c0-2.3125-.219-4.0937-.656-5.3437-.438-1.25-1.469-2.375-3.094-3.375-1.594-1-3.688-1.5-6.2813-1.5-4.4687 0-7.7031 1.7812-9.7031 5.3437l-8.5312-2.25c3.7812-7.0625 10.3125-10.5937 19.5937-10.5937 3.4059 0 6.3439.4687 8.8129 1.4062 2.5.9063 4.359 2.0938 5.578 3.5625 1.218 1.4375 2.031 3 2.437 4.6875.438 1.6875.656 4.375.656 8.0625v21zm-16.453-8.9531c-3.844-3-7.7344-4.5-11.6719-4.5-2.4687 0-4.5312.7188-6.1875 2.1562-1.6562 1.4376-2.4844 3.2969-2.4844 5.5782 0 2.125.7188 3.9062 2.1563 5.3437 1.4687 1.4375 3.4531 2.1563 5.9531 2.1563 4.3125 0 8.3904-1.8125 12.2344-5.4375zm20.696 16.875v-15.5625h7.969v1.5c.281 2.125 1.422 3.875 3.422 5.25 2.031 1.375 4.422 2.0625 7.172 2.0625 2.875 0 5.172-.5 6.89-1.5 1.719-1 2.578-2.3906 2.578-4.1719 0-1.7187-.718-2.9843-2.156-3.7969-1.406-.8124-4.219-1.5624-8.437-2.25-6.25-1.0624-10.719-2.7656-13.407-5.1093-2.656-2.375-3.984-5.4375-3.984-9.1875 0-3.7813 1.453-6.9375 4.359-9.4688 2.907-2.5625 6.735-3.8437 11.485-3.8437 4.281 0 7.969.875 11.062 2.625v-1.9219h7.922v15.0469h-7.922v-2.7657c-2.406-3.7187-5.906-5.5781-10.5-5.5781-2.343 0-4.281.5157-5.812 1.5469-1.5 1-2.25 2.3438-2.25 4.0312 0 1.7188.687 2.9063 2.062 3.5626 1.407.625 4.407 1.2968 9 2.0156 4.407.6875 7.735 1.5 9.985 2.4375 2.25.9062 4.109 2.4375 5.578 4.5937 1.5 2.125 2.25 4.6094 2.25 7.4532 0 4.2187-1.625 7.5781-4.875 10.0781-3.219 2.4687-7.406 3.7031-12.563 3.7031-4.843 0-8.797-1.0938-11.859-3.2812v2.5312zm49.243-7.9219v-49.3593h-8.203v-7.9219h17.11v25.0312c5.343-4.3125 10.422-6.4687 15.234-6.4687 3 0 5.469.625 7.406 1.875 1.938 1.25 3.25 2.9062 3.938 4.9687.719 2.0313 1.078 5.0157 1.078 8.9531v22.9219h7.734v7.9219h-16.64v-27.75c0-3.4375-.11-5.7344-.328-6.8906-.219-1.1563-.829-2.1094-1.829-2.8594-.968-.75-2.125-1.125-3.468-1.125-3.438 0-7.813 1.9531-13.125 5.8594v24.8437h7.875v7.9219h-24.985v-7.9219z"/><path d="m205 99h20v126h-20z"/><path d="m0 99h20v126h-20z"/><path d="m225 99h20v225h-20z" transform="matrix(0 1 -1 0 324 -126)"/><path d="m225 193h20v225h-20z" transform="matrix(0 1 -1 0 418 -32)"/></g><circle cx="113" cy="156" r="13" stroke="#000" stroke-width="10"/></svg>

<svg width="225" height="225" viewBox="0 0 225 225" fill="none" xmlns="http://www.w3.org/2000/svg">
<path d="M3.32812 91V67.3281H11.4844V73.0938C15.3906 80.1875 20.5 83.7344 26.8125 83.7344C30.0312 83.7344 32.75 82.75 34.9688 80.7812C37.1875 78.8125 38.2969 76.2344 38.2969 73.0469C38.2969 69.9531 37.3906 67.7344 35.5781 66.3906C33.7656 65.0156 30.3438 63.6562 25.3125 62.3125C19.4688 60.75 15.1406 59.2812 12.3281 57.9062C9.51562 56.5 7.26562 54.5156 5.57812 51.9531C3.92188 49.3594 3.09375 46.2969 3.09375 42.7656C3.09375 37.2969 4.90625 32.9375 8.53125 29.6875C12.1875 26.4062 16.7656 24.7656 22.2656 24.7656C27.4844 24.7656 32.3281 26.4531 36.7969 29.8281V25.4688H44.7656V45.25H36.7969V40.7031C33.4531 35.6719 28.8438 33.1562 22.9688 33.1562C19.4062 33.1562 16.6719 33.9844 14.7656 35.6406C12.8594 37.2656 11.9062 39.2188 11.9062 41.5C11.9062 43.25 12.3906 44.7969 13.3594 46.1406C14.3281 47.4531 15.5625 48.4219 17.0625 49.0469C18.5625 49.6719 21.5156 50.5469 25.9219 51.6719C31.6719 53.1719 35.8438 54.5781 38.4375 55.8906C41.0312 57.1719 43.2656 59.3281 45.1406 62.3594C47.0156 65.3906 47.9531 68.875 47.9531 72.8125C47.9531 78.375 45.9844 82.9688 42.0469 86.5938C38.1406 90.2188 33.2969 92.0312 27.5156 92.0312C21.5781 92.0312 16.2344 89.8906 11.4844 85.6094V91H3.32812ZM51.0262 53.5469V45.625H56.9325V38.6406L65.8387 30.4844V45.625H74.2294V53.5469H65.8387V75.5781C65.8387 79.1094 66.0262 81.2969 66.4012 82.1406C66.8075 82.9531 67.7919 83.3594 69.3544 83.3594C71.0106 83.3594 72.6356 83.0469 74.2294 82.4219V90.5312C71.9481 91.3438 69.6669 91.75 67.3856 91.75C64.6669 91.75 62.4637 91.1562 60.7762 89.9688C59.0887 88.75 58.0262 87.2344 57.5887 85.4219C57.1512 83.6094 56.9325 80.4844 56.9325 76.0469V53.5469H51.0262ZM123.943 83.0781V91H108.381V85.4688C104.068 89.6562 99.2556 91.75 93.9431 91.75C89.8181 91.75 86.2244 90.4062 83.1619 87.7188C80.1306 85.0312 78.615 81.5938 78.615 77.4062C78.615 73.1875 80.2244 69.6875 83.4431 66.9062C86.6931 64.125 90.5994 62.7344 95.1619 62.7344C99.4119 62.7344 103.521 64.0156 107.49 66.5781V62.0781C107.49 59.7656 107.271 57.9844 106.834 56.7344C106.396 55.4844 105.365 54.3594 103.74 53.3594C102.146 52.3594 100.052 51.8594 97.4587 51.8594C92.99 51.8594 89.7556 53.6406 87.7556 57.2031L79.2244 54.9531C83.0056 47.8906 89.5369 44.3594 98.8181 44.3594C102.224 44.3594 105.162 44.8281 107.631 45.7656C110.131 46.6719 111.99 47.8594 113.209 49.3281C114.427 50.7656 115.24 52.3281 115.646 54.0156C116.084 55.7031 116.302 58.3906 116.302 62.0781V83.0781H123.943ZM107.49 74.125C103.646 71.125 99.7556 69.625 95.8181 69.625C93.3494 69.625 91.2869 70.3438 89.6306 71.7812C87.9744 73.2188 87.1462 75.0781 87.1462 77.3594C87.1462 79.4844 87.865 81.2656 89.3025 82.7031C90.7712 84.1406 92.7556 84.8594 95.2556 84.8594C99.5681 84.8594 103.646 83.0469 107.49 79.4219V74.125ZM128.186 91V75.4375H136.155V76.9375C136.436 79.0625 137.577 80.8125 139.577 82.1875C141.608 83.5625 143.999 84.25 146.749 84.25C149.624 84.25 151.921 83.75 153.639 82.75C155.358 81.75 156.217 80.3594 156.217 78.5781C156.217 76.8594 155.499 75.5938 154.061 74.7812C152.655 73.9688 149.842 73.2188 145.624 72.5312C139.374 71.4688 134.905 69.7656 132.217 67.4219C129.561 65.0469 128.233 61.9844 128.233 58.2344C128.233 54.4531 129.686 51.2969 132.592 48.7656C135.499 46.2031 139.327 44.9219 144.077 44.9219C148.358 44.9219 152.046 45.7969 155.139 47.5469V45.625H163.061V60.6719H155.139V57.9062C152.733 54.1875 149.233 52.3281 144.639 52.3281C142.296 52.3281 140.358 52.8438 138.827 53.875C137.327 54.875 136.577 56.2188 136.577 57.9062C136.577 59.625 137.264 60.8125 138.639 61.4688C140.046 62.0938 143.046 62.7656 147.639 63.4844C152.046 64.1719 155.374 64.9844 157.624 65.9219C159.874 66.8281 161.733 68.3594 163.202 70.5156C164.702 72.6406 165.452 75.125 165.452 77.9688C165.452 82.1875 163.827 85.5469 160.577 88.0469C157.358 90.5156 153.171 91.75 148.014 91.75C143.171 91.75 139.217 90.6562 136.155 88.4688V91H128.186ZM177.429 83.0781V33.7188H169.226V25.7969H186.336V50.8281C191.679 46.5156 196.758 44.3594 201.57 44.3594C204.57 44.3594 207.039 44.9844 208.976 46.2344C210.914 47.4844 212.226 49.1406 212.914 51.2031C213.633 53.2344 213.992 56.2188 213.992 60.1562V83.0781H221.726V91H205.086V63.25C205.086 59.8125 204.976 57.5156 204.758 56.3594C204.539 55.2031 203.929 54.25 202.929 53.5C201.961 52.75 200.804 52.375 199.461 52.375C196.023 52.375 191.648 54.3281 186.336 58.2344V83.0781H194.211V91H169.226V83.0781H177.429Z" fill="black"/>
<rect x="205" y="99" width="20" height="126" fill="black"/>
<rect y="99" width="20" height="126" fill="black"/>
<rect x="225" y="99" width="20" height="225" transform="rotate(90 225 99)" fill="black"/>
<rect x="225" y="193" width="20" height="225" transform="rotate(90 225 193)" fill="black"/>
<circle cx="113" cy="156" r="13" stroke="black" stroke-width="10"/>
</svg>
